gtk-icons/Papirus-GTK/16x16/mimetypes/application-x-compress.svg

<?xml version="1.0" encoding="UTF-8" standalone="no"?>
<svg
   xmlns:dc="http://purl.org/dc/elements/1.1/"
   xmlns:cc="http://creativecommons.org/ns#"
   xmlns:rdf="http://www.w3.org/1999/02/22-rdf-syntax-ns#"
   xmlns:svg="http://www.w3.org/2000/svg"
   xmlns="http://www.w3.org/2000/svg"
   xmlns:sodipodi="http://sodipodi.sourceforge.net/DTD/sodipodi-0.dtd"
   xmlns:inkscape="http://www.inkscape.org/namespaces/inkscape"
   width="16px"
   height="16px"
   viewBox="0 0 16 16"
   version="1.1"
   id="svg2"
   inkscape:version="0.91 r"
   sodipodi:docname="application-x-compress.svg">
  <metadata
     id="metadata25">
    <rdf:RDF>
      <cc:Work
         rdf:about="">
        <dc:format>image/svg+xml</dc:format>
        <dc:type
           rdf:resource="http://purl.org/dc/dcmitype/StillImage" />
      </cc:Work>
    </rdf:RDF>
  </metadata>
  <defs
     id="defs23" />
  <sodipodi:namedview
     pagecolor="#ffffff"
     bordercolor="#666666"
     borderopacity="1"
     objecttolerance="10"
     gridtolerance="10"
     guidetolerance="10"
     inkscape:pageopacity="0"
     inkscape:pageshadow="2"
     inkscape:window-width="1535"
     inkscape:window-height="876"
     id="namedview21"
     showgrid="false"
     inkscape:zoom="14.75"
     inkscape:cx="-4.0338983"
     inkscape:cy="8"
     inkscape:window-x="65"
     inkscape:window-y="24"
     inkscape:window-maximized="1"
     inkscape:current-layer="svg2" />
  <g
     id="surface1"
     transform="matrix(1.2,0,0,1.2,-1.6,-1.1)">
    <path
       style="fill:#ebe8d7;fill-opacity:1;fill-rule:nonzero;stroke:none"
       d="M 3.625,1.75 C 3.277344,1.75 3,2.027344 3,2.375 l 0,11.25 c 0,0.347656 0.277344,0.625 0.625,0.625 l 8.75,0 C 12.722656,14.25 13,13.972656 13,13.625 L 13,5.5 9.5625,5.1875 9.25,1.75 Z m 0,0"
       id="path5"
       inkscape:connector-curvature="0" />
    <path
       style="fill:#ffffff;fill-opacity:0.2;fill-rule:nonzero;stroke:none"
       d="M 3.625,1.75 C 3.277344,1.75 3,2.027344 3,2.375 l 0,0.5 C 3,2.527344 3.277344,2.25 3.625,2.25 l 5.625,0 c 0,0 0,0 0,-0.5 z m 0,0"
       id="path7"
       inkscape:connector-curvature="0" />
    <path
       style="fill:#f8f8f0;fill-opacity:1;fill-rule:nonzero;stroke:none"
       d="m 9.25,1.75 0,3.125 C 9.25,5.21875 9.53125,5.5 9.875,5.5 L 13,5.5 Z m 0,0"
       id="path9"
       inkscape:connector-curvature="0" />
    <path
       style="fill:#000000;fill-opacity:0.2;fill-rule:nonzero;stroke:none"
       d="m 7.25,1.75 0,5 c 0,0.34375 0.28125,0.5 0.625,0.5 0.34375,0 0.375,-0.15625 0.375,-0.5 l 0,-5 z m 0,0"
       id="path11"
       inkscape:connector-curvature="0" />
    <path
       style="fill:#ffffff;fill-opacity:0.50196078;fill-rule:nonzero;stroke:none"
       d="m 7.5,1.75 0,0.25 0.25,0 0,-0.25 z m 0,0.5 0,0.25 0.25,0 0,-0.25 z m 0,0.5 0,0.25 0.25,0 0,-0.25 z m 0,0.5 0,0.25 0.25,0 0,-0.25 z m 0,0.5 0,0.25 0.25,0 0,-0.25 z m 0,0.5 0,0.25 0.25,0 0,-0.25 z m 0,0.5 0,0.25 0.25,0 0,-0.25 z m 0,0.5 0,0.25 0.25,0 0,-0.25 z m 0,0.5 0,0.25 0.25,0 0,-0.25 z m 0,0.5 0,0.25 0.25,0 0,-0.25 z m 0,0.5 C 7.5,6.875 7.613281,7 7.75,7 l 0,-0.25 z m 0,0"
       id="path13"
       inkscape:connector-curvature="0" />
    <path
       style="fill:#000000;fill-opacity:0.2;fill-rule:nonzero;stroke:none"
       d="M 7.75,7.25 C 7.335938,7.25 7,7.585938 7,8 l 0,1.5 c 0,0.414062 0.335938,0.75 0.75,0.75 0.414062,0 0.75,-0.335938 0.75,-0.75 L 8.5,8 C 8.5,7.585938 8.164062,7.25 7.75,7.25 Z m 0,0.5 C 7.886719,7.75 8,7.851562 8,8 8,8.125 7.886719,8.25 7.75,8.25 7.613281,8.25 7.5,8.125 7.5,8 7.5,7.851562 7.613281,7.75 7.75,7.75 Z m 0,1 C 7.886719,8.75 8,8.882812 8,9.082031 L 8,9.417969 C 8,9.582031 7.886719,9.75 7.75,9.75 7.613281,9.75 7.5,9.582031 7.5,9.417969 l 0,-0.335938 C 7.5,8.882812 7.613281,8.75 7.75,8.75 Z m 0,0"
       id="path15"
       inkscape:connector-curvature="0" />
    <path
       style="fill:#f5f5f5;fill-opacity:1;fill-rule:nonzero;stroke:none"
       d="M 7.75,7 C 7.335938,7 7,7.335938 7,7.75 l 0,1.5 C 7,9.664062 7.335938,10 7.75,10 8.164062,10 8.5,9.664062 8.5,9.25 l 0,-1.5 C 8.5,7.335938 8.164062,7 7.75,7 Z m 0,0.5 C 7.886719,7.5 8,7.601562 8,7.75 8,7.875 7.886719,8 7.75,8 7.613281,8 7.5,7.875 7.5,7.75 7.5,7.601562 7.613281,7.5 7.75,7.5 Z m 0,1 C 7.886719,8.5 8,8.632812 8,8.832031 L 8,9.167969 C 8,9.332031 7.886719,9.5 7.75,9.5 7.613281,9.5 7.5,9.332031 7.5,9.167969 l 0,-0.335938 C 7.5,8.632812 7.613281,8.5 7.75,8.5 Z m 0,0"
       id="path17"
       inkscape:connector-curvature="0" />
    <path
       style="fill:#000000;fill-opacity:0.30196102;fill-rule:nonzero;stroke:none"
       d="m 7.75,2 0,0.25 L 8,2.25 8,2 Z m 0,0.5 0,0.25 0.25,0 0,-0.25 z m 0,0.5 0,0.25 L 8,3.25 8,3 Z m 0,0.5 0,0.25 0.25,0 0,-0.25 z m 0,0.5 0,0.25 L 8,4.25 8,4 Z m 0,0.5 0,0.25 0.25,0 0,-0.25 z m 0,0.5 0,0.25 L 8,5.25 8,5 Z m 0,0.5 0,0.25 0.25,0 0,-0.25 z m 0,0.5 0,0.25 L 8,6.25 8,6 Z m 0,0.5 0,0.25 0.25,0 0,-0.25 z m 0,0"
       id="path19"
       inkscape:connector-curvature="0" />
  </g>
</svg>

<?xml version="1.0" encoding="UTF-8" standalone="no"?>
<svg id="svg2" xmlns:rdf="http://www.w3.org/1999/02/22-rdf-syntax-ns#" xmlns="http://www.w3.org/2000/svg" height="16px" width="16px" version="1.1" xmlns:cc="http://creativecommons.org/ns#" xmlns:dc="http://purl.org/dc/elements/1.1/" viewBox="0 0 16 16">
 <metadata id="metadata25">
  <rdf:RDF>
   <cc:Work rdf:about="">
    <dc:format>image/svg+xml</dc:format>
    <dc:type rdf:resource="http://purl.org/dc/dcmitype/StillImage"/>
   </cc:Work>
  </rdf:RDF>
 </metadata>
 <g id="surface1" transform="matrix(1.2,0,0,1.2,-1.6,-1.1)">
  <path id="path5" d="m3.625 1.75c-0.3477 0-0.625 0.2773-0.625 0.625v11.25c0 0.34766 0.27734 0.625 0.625 0.625h8.75c0.348 0 0.625-0.277 0.625-0.625v-8.125l-3.4375-0.3125-0.3125-3.4375z" fill="#ebe8d7"/>
  <path id="path7" d="m3.625 1.75c-0.3477 0-0.625 0.2773-0.625 0.625v0.5c0-0.3477 0.2773-0.625 0.625-0.625h5.625v-0.5z" fill-opacity=".2" fill="#fff"/>
  <path id="path9" d="m9.25 1.75v3.125c0 0.3438 0.2812 0.625 0.625 0.625h3.125z" fill="#f8f8f0"/>
  <path id="path11" d="m7.25 1.75v5c0 0.34375 0.28125 0.5 0.625 0.5s0.375-0.15625 0.375-0.5v-5z" fill-opacity=".2"/>
  <path id="path13" d="m7.5 1.75v0.25h0.25v-0.25zm0 0.5v0.25h0.25v-0.25zm0 0.5v0.25h0.25v-0.25zm0 0.5v0.25h0.25v-0.25zm0 0.5v0.25h0.25v-0.25zm0 0.5v0.25h0.25v-0.25zm0 0.5v0.25h0.25v-0.25zm0 0.5v0.25h0.25v-0.25zm0 0.5v0.25h0.25v-0.25zm0 0.5v0.25h0.25v-0.25zm0 0.5c0 0.125 0.1133 0.25 0.25 0.25v-0.25z" fill-opacity=".50196" fill="#fff"/>
  <path id="path15" d="m7.75 7.25c-0.4141 0-0.75 0.3359-0.75 0.75v1.5c0 0.41406 0.33594 0.75 0.75 0.75s0.75-0.33594 0.75-0.75v-1.5c0-0.4141-0.3359-0.75-0.75-0.75zm0 0.5c0.1367 0 0.25 0.1016 0.25 0.25 0 0.125-0.1133 0.25-0.25 0.25s-0.25-0.125-0.25-0.25c0-0.1484 0.1133-0.25 0.25-0.25zm0 1c0.1367 0 0.25 0.1328 0.25 0.332v0.336c0 0.164-0.1133 0.332-0.25 0.332s-0.25-0.168-0.25-0.332v-0.33594c0-0.1993 0.1133-0.3321 0.25-0.3321z" fill-opacity=".2"/>
  <path id="path17" d="m7.75 7c-0.4141 0-0.75 0.3359-0.75 0.75v1.5c0 0.4141 0.3359 0.75 0.75 0.75s0.75-0.3359 0.75-0.75v-1.5c0-0.4141-0.3359-0.75-0.75-0.75zm0 0.5c0.1367 0 0.25 0.1016 0.25 0.25 0 0.125-0.1133 0.25-0.25 0.25s-0.25-0.125-0.25-0.25c0-0.1484 0.1133-0.25 0.25-0.25zm0 1c0.1367 0 0.25 0.1328 0.25 0.332v0.336c0 0.164-0.1133 0.332-0.25 0.332s-0.25-0.168-0.25-0.332v-0.33594c0-0.1993 0.1133-0.3321 0.25-0.3321z" fill="#f5f5f5"/>
  <path id="path19" d="m7.75 2v0.25h0.25v-0.25zm0 0.5v0.25h0.25v-0.25zm0 0.5v0.25h0.25v-0.25zm0 0.5v0.25h0.25v-0.25zm0 0.5v0.25h0.25v-0.25zm0 0.5v0.25h0.25v-0.25zm0 0.5v0.25h0.25v-0.25zm0 0.5v0.25h0.25v-0.25zm0 0.5v0.25h0.25v-0.25zm0 0.5v0.25h0.25v-0.25z" fill-opacity=".30196"/>
 </g>
</svg>
